X: 10745
T: Dr. Gilbert's
R: reel
M: 4/4
K: Eminor
gf|:eBBA B3c|dBAF AFDF|eBBA (3Bcd gb|afdf efgf|
eBBA B3c|dBAF AFDF|Be3 Begb|afdf efgf:|
|:eB B2 gBeB|defg afdf|gabg fgaf|egfd ed (3Bcd|
afdf edBc|dBAF AFDF|Be e2 Begb|afdf efgf:|

